// Simple cel-outline shader (vertex expansion method).
// Apply to a duplicate mesh that renders behind the main mesh.
// Cull front faces so only the expanded back faces are visible as an outline.
shader_type spatial;
render_mode unshaded, cull_front;

uniform float outline_width : hint_range(0.0, 0.1) = 0.02;
uniform vec4 outline_color : source_color = vec4(0.0, 0.0, 0.0, 1.0);

void vertex() {
	VERTEX += NORMAL * outline_width;
}

void fragment() {
	ALBEDO = outline_color.rgb;
}
